file/nbc-news.svg

<svg clip-rule="evenodd" fill-rule="evenodd" stroke-linejoin="round" stroke-miterlimit="1.41421" viewBox="0 0 560 400" xmlns="http://www.w3.org/2000/svg" xmlns:xlink="http://www.w3.org/1999/xlink"><radialGradient id="a" cx="0" cy="0" gradientTransform="matrix(-.00006731 197.342 -202.061 -.0000049 313.711 251.561)" gradientUnits="userSpaceOnUse" r="1"><stop offset="0" stop-color="#f89c30"/><stop offset="1" stop-color="#e92224"/></radialGradient><radialGradient id="b" cx="0" cy="0" gradientTransform="matrix(-.00006731 197.342 -202.061 -.0000049 313.711 251.561)" gradientUnits="userSpaceOnUse" r="1"><stop offset="0" stop-color="#e4326e"/><stop offset="1" stop-color="#a01d20"/></radialGradient><radialGradient id="c" cx="0" cy="0" gradientTransform="matrix(-.00006731 197.342 -202.061 -.0000049 313.711 251.561)" gradientUnits="userSpaceOnUse" r="1"><stop offset="0" stop-color="#ada7d2"/><stop offset="1" stop-color="#2a266a"/></radialGradient><radialGradient id="d" cx="0" cy="0" gradientTransform="matrix(-.00006731 197.342 -202.061 -.0000049 313.711 251.561)" gradientUnits="userSpaceOnUse" r="1"><stop offset="0" stop-color="#5ad1ec"/><stop offset="1" stop-color="#1f439c"/></radialGradient><radialGradient id="e" cx="0" cy="0" gradientTransform="matrix(-.00006731 197.342 -202.061 -.0000049 313.711 251.561)" gradientUnits="userSpaceOnUse" r="1"><stop offset="0" stop-color="#50ba69"/><stop offset="1" stop-color="#0f7a3d"/></radialGradient><radialGradient id="f" cx="0" cy="0" gradientTransform="matrix(-.00006731 197.342 -202.061 -.0000049 313.711 251.561)" gradientUnits="userSpaceOnUse" r="1"><stop offset="0" stop-color="#fcd414"/><stop offset="1" stop-color="#f6871f"/></radialGradient><g fill-rule="nonzero"><g transform="matrix(.39126827278 0 0 .39106083072 156.1509644998 99.9999644998)"><path d="m316.509 47.503c-9.867-24.237-33.908-50.415-78.94-46.819-57.356 6.133-75.235 60.205-66.566 92.461-22.846-15.216-61.69-21.907-95.599 6.661-43.78 43.166-20.365 101.544 3.707 115.548-26.524-2.417-68.446 15.213-77.72 61.327-9.867 57.255 34.509 90.634 77.72 90.634h479.139c49.967 0 77.689-42.516 74.58-82.615-4.905-52.332-53.59-72.412-80.143-68.108 22.188-12.177 51.821-69.373 6.759-114.34-35.765-33.464-81.365-21.288-97.395-6.692 8.641-27.953-5.531-85.739-63.544-94.881-4.007-.44-7.867-.679-11.547-.679-44.287.007-64.199 31.847-70.451 47.503" fill="#fff"/><path d="m83.385 108.917c-25.295 22.525-34.507 73.563 11.096 103.398l181.928 122.767-88.212-198.775c-18.483-46.907-69.048-57.137-104.812-27.39" fill="url(#a)"/><path d="m239.987 12.271c-29.575.591-73.98 35.232-54.214 88.125l91.232 211.635 32.055-222.6c7.418-55.312-35.133-80.846-69.073-77.16" fill="url(#b)"/><path d="m323.299 80.94h17.252s9.211 0 10.463 4.275c-6.788 5.454-25.264 6.135-22.815 35.263l29.004 191.522 90.607-212.192c18.537-47.377-20.368-86.946-54.874-88.155-1.613-.116-3.229-.208-4.903-.208-30.977 0-66.468 22.144-64.734 69.495" fill="url(#c)"/><path d="m444.166 138.108-85.703 196.391 181.868-123.416c41.927-29.248 35.167-76.01 11.696-99.125-9.84-10.879-27.901-19.282-47.036-19.282-22.61-.004-46.8 11.791-60.825 45.432" fill="url(#d)"/><path d="m519.97 239.03-170.801 117.346h210.305c43.147 0 70.871-43.758 58.548-83.913-8.254-25.238-32.684-45.051-61.032-45.08-11.932.002-24.584 3.539-37.02 11.647" fill="url(#e)"/><path d="m78.482 356.376h207.199l-170.839-117.346c-39.471-24.945-83.847-10.349-99.872 31.042-13.579 47.384 20.332 86.304 63.512 86.304" fill="url(#f)"/></g><g transform="matrix(.30937571588 0 0 .32565619226 112.8380937 65.052263394)"><path d="m867.533 711.045v-30.429s15.677 12.905 32.626 12.905c8.854 0 13.537-4.688 13.537-12.303 0-11.701-11.632-15.41-23.087-21.199-11.944-6.45-25.377-17.41-25.377-37.424 0-22.249 16.711-37.851 40.08-37.851 16.837 0 26.85 7.191 26.85 7.191v28.928s-13.156-10.664-26.81-10.664c-8.837 0-14.19 4.356-14.19 11.663 0 9.989 10.189 14.304 21.137 19.623 17.544 8.561 27.49 18.323 27.49 38.313 0 21.929-15.155 40.927-40.652 40.927-17.885.002-31.604-9.68-31.604-9.68z"/><path d="m283.544 661.49h22.706c5.22.329 14.473 4.89 14.473 15.69 0 11.298-9.601 15.855-14.805 16.366h-22.375zm-.344-50.291h18.69c6.387.348 13.941 5.07 13.941 13.841 0 8.605-5.71 14.336-13.102 15.361h-19.529zm-25.554-20.927v124.186h60.215c14.291 0 31.285-14.337 31.285-33.065 0-19.572-12.777-29.184-20.863-33.064 0 0 14.804-8.605 14.147-27.169-.675-24.974-23.729-30.887-31.634-30.887h-53.15"/><path d="m140.295 585.222v129.235h26.247v-71.529l78.048 76.251v-128.907h-26.227v69.697z"/><path d="m354.616 650.866c.658 39.541 28.855 69.11 65.106 69.11 8.596 0 17.65-1.64 26.905-5.232v-25.479c-7.335 4.516-15.496 6.692-23.492 6.692-21.938 0-42.636-16.354-41.78-46.104 1.479-24.132 21.084-40.795 42.218-40.795 7.738 0 15.697 2.246 23.052 7.151v-24.796c-8.577-3.503-17.101-5.068-25.314-5.068-36.159-.001-66.002 30.733-66.695 64.521"/><path d="m525.342 643.199 78.049 76.607v-129.512h-26.229v70.026l-78.067-75.098v129.84h26.247z"/><path d="m614.146 589.385h68.304v21.613h-41.954v30.323h41.954v20.969h-42.188v31.816h41.97v21.412h-68.086z"/><path d="m689.99 589.707 59.976 131.752 25.643-57.34 26.114 57.34 58.717-131.313h-28.71l-32.17 73.854-11.327-28.07 20.451-45.783h-25.643l-6.922 15.874-6.567-16.313h-27.845l21.237 46.583-12.074 27.709-33.075-74.293z"/></g></g></svg>

<?xml version="1.0" encoding="UTF-8" standalone="no"?>
<!DOCTYPE svg PUBLIC "-//W3C//DTD SVG 1.1//EN" "http://www.w3.org/Graphics/SVG/1.1/DTD/svg11.dtd">
<svg width="100%" height="100%" viewBox="0 0 560 400" version="1.1" xmlns="http://www.w3.org/2000/svg" xmlns:xlink="http://www.w3.org/1999/xlink" xml:space="preserve" xmlns:serif="http://www.serif.com/" style="fill-rule:evenodd;clip-rule:evenodd;stroke-linejoin:round;stroke-miterlimit:1.41421;">
    <g transform="matrix(0.39214,0,0,0.39214,155.599,99.448)">
        <g id="g3348" transform="matrix(0.997777,0,0,0.997248,1.40757,1.40757)">
            <path id="path2996" d="M316.509,47.503C306.642,23.266 282.601,-2.912 237.569,0.684C180.213,6.817 162.334,60.889 171.003,93.145C148.157,77.929 109.313,71.238 75.404,99.806C31.624,142.972 55.039,201.35 79.111,215.354C52.587,212.937 10.665,230.567 1.391,276.681C-8.476,333.936 35.9,367.315 79.111,367.315L558.25,367.315C608.217,367.315 635.939,324.799 632.83,284.7C627.925,232.368 579.24,212.288 552.687,216.592C574.875,204.415 604.508,147.219 559.446,102.252C523.681,68.788 478.081,80.964 462.051,95.56C470.692,67.607 456.52,9.821 398.507,0.679C394.5,0.239 390.64,0 386.96,0C342.673,0.007 322.761,31.847 316.509,47.503" style="fill:white;fill-rule:nonzero;"/>
            <path id="path3085" d="M83.385,108.917C58.09,131.442 48.878,182.48 94.481,212.315L276.409,335.082L188.197,136.307C169.714,89.4 119.149,79.17 83.385,108.917" style="fill:url(#_Radial1);fill-rule:nonzero;"/>
            <path id="path3087" d="M239.987,12.271C210.412,12.862 166.007,47.503 185.773,100.396L277.005,312.031L309.06,89.431C316.478,34.119 273.927,8.585 239.987,12.271" style="fill:url(#_Radial2);fill-rule:nonzero;"/>
            <path id="path3089" d="M323.299,80.94L340.551,80.94C340.551,80.94 349.762,80.94 351.014,85.215C344.226,90.669 325.75,91.35 328.199,120.478L357.203,312L447.81,99.808C466.347,52.431 427.442,12.862 392.936,11.653C391.323,11.537 389.707,11.445 388.033,11.445C357.056,11.445 321.565,33.589 323.299,80.94" style="fill:url(#_Radial3);fill-rule:nonzero;"/>
            <path id="path3091" d="M444.166,138.108L358.463,334.499L540.331,211.083C582.258,181.835 575.498,135.073 552.027,111.958C542.187,101.079 524.126,92.676 504.991,92.676C482.381,92.672 458.191,104.467 444.166,138.108" style="fill:url(#_Radial4);fill-rule:nonzero;"/>
            <path id="path3093" d="M519.97,239.03L349.169,356.376L559.474,356.376C602.621,356.376 630.345,312.618 618.022,272.463C609.768,247.225 585.338,227.412 556.99,227.383C545.058,227.385 532.406,230.922 519.97,239.03" style="fill:url(#_Radial5);fill-rule:nonzero;"/>
            <path id="path3095" d="M78.482,356.376L285.681,356.376L114.842,239.03C75.371,214.085 30.995,228.681 14.97,270.072C1.391,317.456 35.302,356.376 78.482,356.376" style="fill:url(#_Radial6);fill-rule:nonzero;"/>
        </g>
        <g id="g4" transform="matrix(0.788942,0,0,0.830459,-109.045,-87.7129)">
            <path id="path3124" d="M867.533,711.045L867.533,680.616C867.533,680.616 883.21,693.521 900.159,693.521C909.013,693.521 913.696,688.833 913.696,681.218C913.696,669.517 902.064,665.808 890.609,660.019C878.665,653.569 865.232,642.609 865.232,622.595C865.232,600.346 881.943,584.744 905.312,584.744C922.149,584.744 932.162,591.935 932.162,591.935L932.162,620.863C932.162,620.863 919.006,610.199 905.352,610.199C896.515,610.199 891.162,614.555 891.162,621.862C891.162,631.851 901.351,636.166 912.299,641.485C929.843,650.046 939.789,659.808 939.789,679.798C939.789,701.727 924.634,720.725 899.137,720.725C881.252,720.727 867.533,711.045 867.533,711.045Z" style="fill-rule:nonzero;"/>
            <path id="path3010-2" d="M283.544,661.49L306.25,661.49C311.47,661.819 320.723,666.38 320.723,677.18C320.723,688.478 311.122,693.035 305.918,693.546L283.543,693.546L283.544,661.49M283.2,611.199L301.89,611.199C308.277,611.547 315.831,616.269 315.831,625.04C315.831,633.645 310.121,639.376 302.729,640.401L283.2,640.401L283.2,611.199M257.646,590.272L257.646,714.458L317.861,714.458C332.152,714.458 349.146,700.121 349.146,681.393C349.146,661.821 336.369,652.209 328.283,648.329C328.283,648.329 343.087,639.724 342.43,621.16C341.755,596.186 318.701,590.273 310.796,590.273L257.646,590.273" style="fill-rule:nonzero;"/>
            <path id="polygon3012-4" d="M140.295,585.222L140.295,714.457L166.542,714.457L166.542,642.928L244.59,719.179L244.59,590.272L218.363,590.272L218.363,659.969L140.295,585.222Z" style="fill-rule:nonzero;"/>
            <path id="path3014-8" d="M354.616,650.866C355.274,690.407 383.471,719.976 419.722,719.976C428.318,719.976 437.372,718.336 446.627,714.744L446.627,689.265C439.292,693.781 431.131,695.957 423.135,695.957C401.197,695.957 380.499,679.603 381.355,649.853C382.834,625.721 402.439,609.058 423.573,609.058C431.311,609.058 439.27,611.304 446.625,616.209L446.625,591.413C438.048,587.91 429.524,586.345 421.311,586.345C385.152,586.344 355.309,617.078 354.616,650.866" style="fill-rule:nonzero;"/>
            <path id="polygon3229-6" d="M525.342,643.199L603.391,719.806L603.391,590.294L577.162,590.294L577.162,660.32L499.095,585.222L499.095,715.062L525.342,715.062L525.342,643.199Z" style="fill-rule:nonzero;"/>
            <path id="path3231-5" d="M614.146,589.385L682.45,589.385L682.45,610.998L640.496,610.998L640.496,641.321L682.45,641.321L682.45,662.29L640.262,662.29L640.262,694.106L682.232,694.106L682.232,715.518L614.146,715.518L614.146,589.385Z" style="fill-rule:nonzero;"/>
            <path id="path3233-2" d="M689.99,589.707L749.966,721.459L775.609,664.119L801.723,721.459L860.44,590.146L831.73,590.146L799.56,664L788.233,635.93L808.684,590.147L783.041,590.147L776.119,606.021L769.552,589.708L741.707,589.708L762.944,636.291L750.87,664L717.795,589.707L689.99,589.707Z" style="fill-rule:nonzero;"/>
        </g>
    </g>
    <defs>
        <radialGradient id="_Radial1" cx="0" cy="0" r="1" gradientUnits="userSpaceOnUse" gradientTransform="matrix(-6.73111e-05,197.342,-202.061,-4.8992e-06,313.711,251.561)"><stop offset="0" style="stop-color:rgb(248,156,48);stop-opacity:1"/><stop offset="1" style="stop-color:rgb(233,34,36);stop-opacity:1"/></radialGradient>
        <radialGradient id="_Radial2" cx="0" cy="0" r="1" gradientUnits="userSpaceOnUse" gradientTransform="matrix(-6.73111e-05,197.342,-202.061,-4.8992e-06,313.711,251.561)"><stop offset="0" style="stop-color:rgb(228,50,110);stop-opacity:1"/><stop offset="1" style="stop-color:rgb(160,29,32);stop-opacity:1"/></radialGradient>
        <radialGradient id="_Radial3" cx="0" cy="0" r="1" gradientUnits="userSpaceOnUse" gradientTransform="matrix(-6.73111e-05,197.342,-202.061,-4.8992e-06,313.711,251.561)"><stop offset="0" style="stop-color:rgb(173,167,210);stop-opacity:1"/><stop offset="1" style="stop-color:rgb(42,38,106);stop-opacity:1"/></radialGradient>
        <radialGradient id="_Radial4" cx="0" cy="0" r="1" gradientUnits="userSpaceOnUse" gradientTransform="matrix(-6.73111e-05,197.342,-202.061,-4.8992e-06,313.711,251.561)"><stop offset="0" style="stop-color:rgb(90,209,236);stop-opacity:1"/><stop offset="1" style="stop-color:rgb(31,67,156);stop-opacity:1"/></radialGradient>
        <radialGradient id="_Radial5" cx="0" cy="0" r="1" gradientUnits="userSpaceOnUse" gradientTransform="matrix(-6.73111e-05,197.342,-202.061,-4.8992e-06,313.711,251.561)"><stop offset="0" style="stop-color:rgb(80,186,105);stop-opacity:1"/><stop offset="1" style="stop-color:rgb(15,122,61);stop-opacity:1"/></radialGradient>
        <radialGradient id="_Radial6" cx="0" cy="0" r="1" gradientUnits="userSpaceOnUse" gradientTransform="matrix(-6.73111e-05,197.342,-202.061,-4.8992e-06,313.711,251.561)"><stop offset="0" style="stop-color:rgb(252,212,20);stop-opacity:1"/><stop offset="1" style="stop-color:rgb(246,135,31);stop-opacity:1"/></radialGradient>
    </defs>
</svg>
